Newaita-dark/apps/32/nextcloud.svg

<svg height="32" viewBox="0 0 32 32" width="32" xmlns="http://www.w3.org/2000/svg" xmlns:xlink="http://www.w3.org/1999/xlink"><linearGradient id="a" gradientUnits="userSpaceOnUse" x1="15.87652" x2="15.87652" y1="28.033936" y2="29.35698000003"><stop offset="0" stop-opacity=".27451"/><stop offset="1" stop-opacity="0"/></linearGradient><linearGradient id="b"><stop offset="0" stop-opacity=".313726"/><stop offset=".222222" stop-opacity=".27451"/><stop offset="1" stop-opacity="0"/></linearGradient><radialGradient id="c" cx="450.908936" cy="189.579361" gradientTransform="matrix(.00000017 -.0781325 -.140638 -.0000001 52.130648 63.595333)" gradientUnits="userSpaceOnUse" r="21.166656" xlink:href="#b"/><radialGradient id="d" cx="450.908936" cy="189.579361" gradientTransform="matrix(-.00000017 .0781325 .140638 .0000001 -20.377613 -7.527479)" gradientUnits="userSpaceOnUse" r="21.166656" xlink:href="#b"/><radialGradient id="e" cx="450.908936" cy="189.579361" gradientTransform="matrix(-.00000017 -.0781325 .140638 -.0000001 -20.377613 63.595333)" gradientUnits="userSpaceOnUse" r="21.166656" xlink:href="#b"/><radialGradient id="f" cx="450.908936" cy="189.579361" gradientTransform="matrix(.00000017 .0781325 -.140638 .0000001 52.130646 -7.527479)" gradientUnits="userSpaceOnUse" r="21.166656" xlink:href="#b"/><linearGradient id="g" gradientUnits="userSpaceOnUse" x1="10.58434899997" x2="10.58434899997" y1="28.033934" y2="2.89610500006"><stop offset="0" stop-color="#2979ff"/><stop offset="1" stop-color="#448aff"/></linearGradient><linearGradient id="h" gradientUnits="userSpaceOnUse" x1="15.87647899118" x2="15.87648" y1="28.03386419623" y2="2.89610370009"><stop offset="0" stop-color="#e0e0e0"/><stop offset="1" stop-color="#eee"/></linearGradient><path d="m5.953125 27.9375h19.847656v1.46875h-19.847656zm0 0" fill="url(#a)"/><path d="m25.800781 28.035156h2.644531v-1.324218h-2.644531zm0 0" fill="url(#c)"/><path d="m5.953125 28.035156h-2.644531v1.320313h2.644531zm0 0" fill="url(#d)"/><path d="m5.953125 28.035156h-2.644531v-1.324218h2.644531zm0 0" fill="url(#e)"/><path d="m25.800781 28.035156h2.644531v1.320313h-2.644531zm0 0" fill="url(#f)"/><path d="m4.628906 2.894531h22.492188c.730468 0 1.324218.59375 1.324218 1.324219v22.492188c0 .730468-.59375 1.324218-1.324218 1.324218h-22.492188c-.730468 0-1.320312-.59375-1.320312-1.324218v-22.492188c0-.730469.589844-1.324219 1.320312-1.324219zm0 0" fill="url(#g)"/><path d="m4.628906 2.894531c-.730468 0-1.320312.589844-1.320312 1.324219v.164062c0-.730468.589844-1.324218 1.320312-1.320312h22.492188c.734375-.003906 1.324218.589844 1.324218 1.320312v-.164062c0-.734375-.589843-1.324219-1.324218-1.324219zm0 0" fill="#e6e6e6" fill-opacity=".392157"/><path d="m4.628906 28.035156c-.730468 0-1.320312-.589844-1.320312-1.324218v-.164063c0 .730469.589844 1.320313 1.320312 1.320313h22.492188c.734375 0 1.324218-.589844 1.324218-1.320313v.164063c0 .734374-.589843 1.324218-1.324218 1.324218zm0 0" fill-opacity=".196078"/><path d="m74.055428-168.691922h359.840637c11.686384 0 21.185477 9.499093 21.185477 21.185477v359.840637c0 11.686384-9.499093 21.185477-21.185477 21.185477h-359.840637c-11.686384 0-21.122983-9.499093-21.122983-21.185477v-359.840637c0-11.686384 9.436599-21.185477 21.122983-21.185477zm0 0" fill="none" stroke="#212121" stroke-linecap="round" stroke-width="3" transform="matrix(.062506 0 0 .062506 0 13.438783)"/><path d="m15.875 11.496094c-1.699219 0-3.144531 1.058594-3.710938 2.558594-.46875-.742188-1.292968-1.234376-2.242187-1.234376-1.464844 0-2.644531 1.179688-2.644531 2.644532s1.179687 2.644531 2.644531 2.644531c.949219 0 1.773437-.492187 2.242187-1.234375.566407 1.5 2.011719 2.558594 3.710938 2.558594 1.703125 0 3.148438-1.058594 3.714844-2.558594.464844.742188 1.292968 1.234375 2.242187 1.234375 1.464844 0 2.644531-1.179687 2.644531-2.644531s-1.179687-2.644532-2.644531-2.644532c-.949219 0-1.777343.492188-2.242187 1.234376-.566406-1.5-2.011719-2.558594-3.714844-2.558594zm0 1.984375c1.101562 0 1.984375.886719 1.984375 1.984375s-.882813 1.984375-1.984375 1.984375c-1.097656 0-1.984375-.886719-1.984375-1.984375s.886719-1.984375 1.984375-1.984375zm-5.953125 1.324219c.367187 0 .664063.292968.664063.660156 0 .367187-.296876.660156-.664063.660156s-.660156-.292969-.660156-.660156c0-.367188.292969-.660156.660156-.660156zm11.910156 0c.363281 0 .660157.292968.660157.660156 0 .367187-.296876.660156-.660157.660156-.367187 0-.664062-.292969-.664062-.660156 0-.367188.296875-.660156.664062-.660156zm0 0" fill="url(#h)"/><path d="m15.875 11.496094c-1.699219 0-3.144531 1.058594-3.710938 2.558594-.46875-.742188-1.292968-1.234376-2.242187-1.234376-1.464844 0-2.644531 1.179688-2.644531 2.644532 0 .054687 0 .109375.003906.164062.085938-1.386718 1.230469-2.480468 2.640625-2.480468.949219 0 1.773437.492187 2.242187 1.238281.566407-1.5 2.011719-2.558594 3.710938-2.558594 1.703125 0 3.148438 1.058594 3.714844 2.558594.464844-.746094 1.292968-1.238281 2.242187-1.238281 1.410157 0 2.554688 1.09375 2.640625 2.480468 0-.054687.003906-.109375.003906-.164062 0-1.464844-1.179687-2.644532-2.644531-2.644532-.949219 0-1.777343.492188-2.242187 1.234376-.566406-1.5-2.011719-2.558594-3.714844-2.558594zm-6.59375 4.132812c-.011719.054688-.019531.109375-.019531.167969 0 .367187.292969.660156.660156.660156s.664063-.292969.664063-.660156c0-.058594-.007813-.113281-.023438-.167969-.070312.289063-.332031.496094-.640625.496094s-.566406-.207031-.640625-.496094zm4.617188 0c-.003907.054688-.007813.109375-.007813.167969 0 1.097656.886719 1.984375 1.984375 1.984375 1.101562 0 1.984375-.886719 1.984375-1.984375 0-.058594 0-.113281-.003906-.167969-.085938 1.023438-.933594 1.820313-1.980469 1.820313-1.042969 0-1.894531-.796875-1.976562-1.820313zm7.289062 0c-.011719.054688-.019531.109375-.019531.167969 0 .367187.296875.660156.664062.660156.363281 0 .660157-.292969.660157-.660156 0-.058594-.007813-.113281-.019532-.167969-.074218.289063-.332031.496094-.640625.496094-.3125 0-.570312-.207031-.644531-.496094zm0 0" fill="#fff" fill-opacity=".987097"/><path d="m15.875 13.476562c-1.097656 0-1.984375.882813-1.984375 1.984376 0 .070312.003906.136718.011719.207031.101562-1.003907.945312-1.777344 1.972656-1.777344 1.03125 0 1.871094.773437 1.976562 1.777344.007813-.070313.007813-.136719.007813-.207031 0-1.101563-.882813-1.984376-1.984375-1.984376zm-5.953125 1.320313c-.367187 0-.660156.296875-.660156.664063 0 .070312.011719.140624.03125.207031.085937-.265625.335937-.457031.628906-.457031.296875 0 .542969.191406.628906.457031.023438-.066407.035157-.136719.035157-.207031 0-.367188-.296876-.664063-.664063-.664063zm11.910156 0c-.367187 0-.664062.296875-.664062.664063 0 .070312.011719.140624.035156.207031.085937-.265625.332031-.457031.628906-.457031.292969 0 .539063.191406.625.457031.023438-.066407.035157-.136719.035157-.207031 0-.367188-.296876-.664063-.660157-.664063zm-14.546875.871094c-.003906.066406-.007812.136719-.007812.207031 0 1.464844 1.179687 2.644531 2.644531 2.644531.949219 0 1.773437-.492187 2.242187-1.234375.566407 1.496094 2.011719 2.558594 3.710938 2.558594 1.703125 0 3.148438-1.0625 3.714844-2.558594.464844.742188 1.292968 1.234375 2.242187 1.234375 1.464844 0 2.644531-1.179687 2.644531-2.644531 0-.070312-.003906-.140625-.007812-.207031-.105469 1.367187-1.242188 2.4375-2.636719 2.4375-.949219 0-1.777343-.492188-2.242187-1.234375-.566406 1.496094-2.011719 2.558594-3.714844 2.558594-1.699219 0-3.144531-1.0625-3.710938-2.558594-.46875.742187-1.292968 1.234375-2.242187 1.234375-1.394531 0-2.53125-1.070313-2.636719-2.4375zm0 0" fill-opacity=".235294"/><path d="m959.908384 695.130505c-102.746099 0-190.139333 64.009639-224.388033 154.709644-28.343751-44.877607-78.181514-74.638546-135.577611-74.638546-88.574224 0-159.905998 71.331775-159.905998 159.905998 0 88.574224 71.331774 159.905998 159.905998 159.905998 57.396097 0 107.23386-29.760939 135.577611-74.638545 34.2487 90.700004 121.641934 154.709643 224.388033 154.709643 102.982297 0 190.375531-64.009639 224.62423-154.709643 28.107554 44.877606 78.181515 74.638545 135.577612 74.638545 88.574223 0 159.905998-71.331774 159.905998-159.905998 0-88.574223-71.331775-159.905998-159.905998-159.905998-57.396097 0-107.470058 29.760939-135.577612 74.638546-34.248699-90.700005-121.641933-154.709644-224.62423-154.709644zm0 119.988548c66.607816 0 119.988548 53.61693 119.988548 119.988548s-53.380732 119.988548-119.988548 119.988548c-66.371618 0-119.988548-53.61693-119.988548-119.988548s53.61693-119.988548 119.988548-119.988548zm-359.965644 80.071098c22.202605 0 40.153648 17.714845 40.153648 39.91745 0 22.202606-17.951043 39.91745-40.153648 39.91745s-39.91745-17.714844-39.91745-39.91745c0-22.202605 17.714845-39.91745 39.91745-39.91745zm720.167486 0c21.966407 0 39.91745 17.714845 39.91745 39.91745 0 22.202606-17.951043 39.91745-39.91745 39.91745-22.202606 0-40.153648-17.714844-40.153648-39.91745 0-22.202605 17.951042-39.91745 40.153648-39.91745zm0 0" fill="none" stroke="#212121" stroke-linecap="round" stroke-linejoin="round" stroke-width="11.338583" transform="scale(.016538)"/></svg>

<?xml version="1.0" encoding="UTF-8"?>
<svg xmlns="http://www.w3.org/2000/svg" xmlns:xlink="http://www.w3.org/1999/xlink" width="32px" height="32px" viewBox="0 0 32 32" version="1.1">
<defs>
<linearGradient id="linear0" gradientUnits="userSpaceOnUse" x1="254" y1="233.5" x2="254" y2="254.666672" gradientTransform="matrix(0.062506,0,0,0.062506,-0.00000381506,13.438785)">
<stop offset="0" style="stop-color:rgb(0%,0%,0%);stop-opacity:0.27451;"/>
<stop offset="1" style="stop-color:rgb(0%,0%,0%);stop-opacity:0;"/>
</linearGradient>
<radialGradient id="radial0" gradientUnits="userSpaceOnUse" cx="450.908936" cy="189.579361" fx="450.908936" fy="189.579361" r="21.166656" gradientTransform="matrix(0.00000017417,-0.0781325,-0.140638,-0.000000101539,52.130648,63.595333)">
<stop offset="0" style="stop-color:rgb(0%,0%,0%);stop-opacity:0.313726;"/>
<stop offset="0.222222" style="stop-color:rgb(0%,0%,0%);stop-opacity:0.27451;"/>
<stop offset="1" style="stop-color:rgb(0%,0%,0%);stop-opacity:0;"/>
</radialGradient>
<radialGradient id="radial1" gradientUnits="userSpaceOnUse" cx="450.908936" cy="189.579361" fx="450.908936" fy="189.579361" r="21.166656" gradientTransform="matrix(-0.00000017417,0.0781325,0.140638,0.000000101539,-20.377613,-7.527479)">
<stop offset="0" style="stop-color:rgb(0%,0%,0%);stop-opacity:0.313726;"/>
<stop offset="0.222222" style="stop-color:rgb(0%,0%,0%);stop-opacity:0.27451;"/>
<stop offset="1" style="stop-color:rgb(0%,0%,0%);stop-opacity:0;"/>
</radialGradient>
<radialGradient id="radial2" gradientUnits="userSpaceOnUse" cx="450.908936" cy="189.579361" fx="450.908936" fy="189.579361" r="21.166656" gradientTransform="matrix(-0.00000017417,-0.0781325,0.140638,-0.000000101539,-20.377613,63.595333)">
<stop offset="0" style="stop-color:rgb(0%,0%,0%);stop-opacity:0.313726;"/>
<stop offset="0.222222" style="stop-color:rgb(0%,0%,0%);stop-opacity:0.27451;"/>
<stop offset="1" style="stop-color:rgb(0%,0%,0%);stop-opacity:0;"/>
</radialGradient>
<radialGradient id="radial3" gradientUnits="userSpaceOnUse" cx="450.908936" cy="189.579361" fx="450.908936" fy="189.579361" r="21.166656" gradientTransform="matrix(0.00000017417,0.0781325,-0.140638,0.000000101539,52.130646,-7.527479)">
<stop offset="0" style="stop-color:rgb(0%,0%,0%);stop-opacity:0.313726;"/>
<stop offset="0.222222" style="stop-color:rgb(0%,0%,0%);stop-opacity:0.27451;"/>
<stop offset="1" style="stop-color:rgb(0%,0%,0%);stop-opacity:0;"/>
</radialGradient>
<linearGradient id="linear1" gradientUnits="userSpaceOnUse" x1="169.333328" y1="233.5" x2="169.333328" y2="-168.666656" gradientTransform="matrix(0.062506,0,0,0.062506,0,13.438783)">
<stop offset="0" style="stop-color:rgb(16.078432%,47.450981%,100%);stop-opacity:1;"/>
<stop offset="1" style="stop-color:rgb(26.666668%,54.11765%,100%);stop-opacity:1;"/>
</linearGradient>
<linearGradient id="linear2" gradientUnits="userSpaceOnUse" x1="959.999939" y1="1695.118164" x2="960" y2="175.118134" gradientTransform="matrix(0.016538,0,0,0.016538,0,0)">
<stop offset="0" style="stop-color:rgb(87.843138%,87.843138%,87.843138%);stop-opacity:1;"/>
<stop offset="1" style="stop-color:rgb(93.333334%,93.333334%,93.333334%);stop-opacity:1;"/>
</linearGradient>
</defs>
<g id="surface1">
<path style=" stroke:none;fill-rule:nonzero;fill:url(#linear0);" d="M 5.953125 27.9375 L 25.800781 27.9375 L 25.800781 29.40625 L 5.953125 29.40625 Z M 5.953125 27.9375 "/>
<path style=" stroke:none;fill-rule:nonzero;fill:url(#radial0);" d="M 25.800781 28.035156 L 28.445312 28.035156 L 28.445312 26.710938 L 25.800781 26.710938 Z M 25.800781 28.035156 "/>
<path style=" stroke:none;fill-rule:nonzero;fill:url(#radial1);" d="M 5.953125 28.035156 L 3.308594 28.035156 L 3.308594 29.355469 L 5.953125 29.355469 Z M 5.953125 28.035156 "/>
<path style=" stroke:none;fill-rule:nonzero;fill:url(#radial2);" d="M 5.953125 28.035156 L 3.308594 28.035156 L 3.308594 26.710938 L 5.953125 26.710938 Z M 5.953125 28.035156 "/>
<path style=" stroke:none;fill-rule:nonzero;fill:url(#radial3);" d="M 25.800781 28.035156 L 28.445312 28.035156 L 28.445312 29.355469 L 25.800781 29.355469 Z M 25.800781 28.035156 "/>
<path style=" stroke:none;fill-rule:nonzero;fill:url(#linear1);" d="M 4.628906 2.894531 L 27.121094 2.894531 C 27.851562 2.894531 28.445312 3.488281 28.445312 4.21875 L 28.445312 26.710938 C 28.445312 27.441406 27.851562 28.035156 27.121094 28.035156 L 4.628906 28.035156 C 3.898438 28.035156 3.308594 27.441406 3.308594 26.710938 L 3.308594 4.21875 C 3.308594 3.488281 3.898438 2.894531 4.628906 2.894531 Z M 4.628906 2.894531 "/>
<path style=" stroke:none;fill-rule:nonzero;fill:rgb(90.196079%,90.196079%,90.196079%);fill-opacity:0.392157;" d="M 4.628906 2.894531 C 3.898438 2.894531 3.308594 3.484375 3.308594 4.21875 L 3.308594 4.382812 C 3.308594 3.652344 3.898438 3.058594 4.628906 3.0625 L 27.121094 3.0625 C 27.855469 3.058594 28.445312 3.652344 28.445312 4.382812 L 28.445312 4.21875 C 28.445312 3.484375 27.855469 2.894531 27.121094 2.894531 Z M 4.628906 2.894531 "/>
<path style=" stroke:none;fill-rule:nonzero;fill:rgb(0%,0%,0%);fill-opacity:0.196078;" d="M 4.628906 28.035156 C 3.898438 28.035156 3.308594 27.445312 3.308594 26.710938 L 3.308594 26.546875 C 3.308594 27.277344 3.898438 27.867188 4.628906 27.867188 L 27.121094 27.867188 C 27.855469 27.867188 28.445312 27.277344 28.445312 26.546875 L 28.445312 26.710938 C 28.445312 27.445312 27.855469 28.035156 27.121094 28.035156 Z M 4.628906 28.035156 "/>
<path style="fill:none;stroke-width:3;stroke-linecap:round;stroke-linejoin:miter;stroke:rgb(12.941177%,12.941177%,12.941177%);stroke-opacity:1;stroke-miterlimit:4;" d="M 74.055428 -168.691922 L 433.896065 -168.691922 C 445.582449 -168.691922 455.081542 -159.192829 455.081542 -147.506445 L 455.081542 212.334192 C 455.081542 224.020576 445.582449 233.519669 433.896065 233.519669 L 74.055428 233.519669 C 62.369044 233.519669 52.932445 224.020576 52.932445 212.334192 L 52.932445 -147.506445 C 52.932445 -159.192829 62.369044 -168.691922 74.055428 -168.691922 Z M 74.055428 -168.691922 " transform="matrix(0.062506,0,0,0.062506,0,13.438783)"/>
<path style=" stroke:none;fill-rule:nonzero;fill:url(#linear2);" d="M 15.875 11.496094 C 14.175781 11.496094 12.730469 12.554688 12.164062 14.054688 C 11.695312 13.3125 10.871094 12.820312 9.921875 12.820312 C 8.457031 12.820312 7.277344 14 7.277344 15.464844 C 7.277344 16.929688 8.457031 18.109375 9.921875 18.109375 C 10.871094 18.109375 11.695312 17.617188 12.164062 16.875 C 12.730469 18.375 14.175781 19.433594 15.875 19.433594 C 17.578125 19.433594 19.023438 18.375 19.589844 16.875 C 20.054688 17.617188 20.882812 18.109375 21.832031 18.109375 C 23.296875 18.109375 24.476562 16.929688 24.476562 15.464844 C 24.476562 14 23.296875 12.820312 21.832031 12.820312 C 20.882812 12.820312 20.054688 13.3125 19.589844 14.054688 C 19.023438 12.554688 17.578125 11.496094 15.875 11.496094 Z M 15.875 13.480469 C 16.976562 13.480469 17.859375 14.367188 17.859375 15.464844 C 17.859375 16.5625 16.976562 17.449219 15.875 17.449219 C 14.777344 17.449219 13.890625 16.5625 13.890625 15.464844 C 13.890625 14.367188 14.777344 13.480469 15.875 13.480469 Z M 9.921875 14.804688 C 10.289062 14.804688 10.585938 15.097656 10.585938 15.464844 C 10.585938 15.832031 10.289062 16.125 9.921875 16.125 C 9.554688 16.125 9.261719 15.832031 9.261719 15.464844 C 9.261719 15.097656 9.554688 14.804688 9.921875 14.804688 Z M 21.832031 14.804688 C 22.195312 14.804688 22.492188 15.097656 22.492188 15.464844 C 22.492188 15.832031 22.195312 16.125 21.832031 16.125 C 21.464844 16.125 21.167969 15.832031 21.167969 15.464844 C 21.167969 15.097656 21.464844 14.804688 21.832031 14.804688 Z M 21.832031 14.804688 "/>
<path style=" stroke:none;fill-rule:nonzero;fill:rgb(100%,100%,100%);fill-opacity:0.987097;" d="M 15.875 11.496094 C 14.175781 11.496094 12.730469 12.554688 12.164062 14.054688 C 11.695312 13.3125 10.871094 12.820312 9.921875 12.820312 C 8.457031 12.820312 7.277344 14 7.277344 15.464844 C 7.277344 15.519531 7.277344 15.574219 7.28125 15.628906 C 7.367188 14.242188 8.511719 13.148438 9.921875 13.148438 C 10.871094 13.148438 11.695312 13.640625 12.164062 14.386719 C 12.730469 12.886719 14.175781 11.828125 15.875 11.828125 C 17.578125 11.828125 19.023438 12.886719 19.589844 14.386719 C 20.054688 13.640625 20.882812 13.148438 21.832031 13.148438 C 23.242188 13.148438 24.386719 14.242188 24.472656 15.628906 C 24.472656 15.574219 24.476562 15.519531 24.476562 15.464844 C 24.476562 14 23.296875 12.820312 21.832031 12.820312 C 20.882812 12.820312 20.054688 13.3125 19.589844 14.054688 C 19.023438 12.554688 17.578125 11.496094 15.875 11.496094 Z M 9.28125 15.628906 C 9.269531 15.683594 9.261719 15.738281 9.261719 15.796875 C 9.261719 16.164062 9.554688 16.457031 9.921875 16.457031 C 10.289062 16.457031 10.585938 16.164062 10.585938 15.796875 C 10.585938 15.738281 10.578125 15.683594 10.5625 15.628906 C 10.492188 15.917969 10.230469 16.125 9.921875 16.125 C 9.613281 16.125 9.355469 15.917969 9.28125 15.628906 Z M 13.898438 15.628906 C 13.894531 15.683594 13.890625 15.738281 13.890625 15.796875 C 13.890625 16.894531 14.777344 17.78125 15.875 17.78125 C 16.976562 17.78125 17.859375 16.894531 17.859375 15.796875 C 17.859375 15.738281 17.859375 15.683594 17.855469 15.628906 C 17.769531 16.652344 16.921875 17.449219 15.875 17.449219 C 14.832031 17.449219 13.980469 16.652344 13.898438 15.628906 Z M 21.1875 15.628906 C 21.175781 15.683594 21.167969 15.738281 21.167969 15.796875 C 21.167969 16.164062 21.464844 16.457031 21.832031 16.457031 C 22.195312 16.457031 22.492188 16.164062 22.492188 15.796875 C 22.492188 15.738281 22.484375 15.683594 22.472656 15.628906 C 22.398438 15.917969 22.140625 16.125 21.832031 16.125 C 21.519531 16.125 21.261719 15.917969 21.1875 15.628906 Z M 21.1875 15.628906 "/>
<path style=" stroke:none;fill-rule:nonzero;fill:rgb(0%,0%,0%);fill-opacity:0.235294;" d="M 15.875 13.476562 C 14.777344 13.476562 13.890625 14.359375 13.890625 15.460938 C 13.890625 15.53125 13.894531 15.597656 13.902344 15.667969 C 14.003906 14.664062 14.847656 13.890625 15.875 13.890625 C 16.90625 13.890625 17.746094 14.664062 17.851562 15.667969 C 17.859375 15.597656 17.859375 15.53125 17.859375 15.460938 C 17.859375 14.359375 16.976562 13.476562 15.875 13.476562 Z M 9.921875 14.796875 C 9.554688 14.796875 9.261719 15.09375 9.261719 15.460938 C 9.261719 15.53125 9.273438 15.601562 9.292969 15.667969 C 9.378906 15.402344 9.628906 15.210938 9.921875 15.210938 C 10.21875 15.210938 10.464844 15.402344 10.550781 15.667969 C 10.574219 15.601562 10.585938 15.53125 10.585938 15.460938 C 10.585938 15.09375 10.289062 14.796875 9.921875 14.796875 Z M 21.832031 14.796875 C 21.464844 14.796875 21.167969 15.09375 21.167969 15.460938 C 21.167969 15.53125 21.179688 15.601562 21.203125 15.667969 C 21.289062 15.402344 21.535156 15.210938 21.832031 15.210938 C 22.125 15.210938 22.371094 15.402344 22.457031 15.667969 C 22.480469 15.601562 22.492188 15.53125 22.492188 15.460938 C 22.492188 15.09375 22.195312 14.796875 21.832031 14.796875 Z M 7.285156 15.667969 C 7.28125 15.734375 7.277344 15.804688 7.277344 15.875 C 7.277344 17.339844 8.457031 18.519531 9.921875 18.519531 C 10.871094 18.519531 11.695312 18.027344 12.164062 17.285156 C 12.730469 18.78125 14.175781 19.84375 15.875 19.84375 C 17.578125 19.84375 19.023438 18.78125 19.589844 17.285156 C 20.054688 18.027344 20.882812 18.519531 21.832031 18.519531 C 23.296875 18.519531 24.476562 17.339844 24.476562 15.875 C 24.476562 15.804688 24.472656 15.734375 24.46875 15.667969 C 24.363281 17.035156 23.226562 18.105469 21.832031 18.105469 C 20.882812 18.105469 20.054688 17.613281 19.589844 16.871094 C 19.023438 18.367188 17.578125 19.429688 15.875 19.429688 C 14.175781 19.429688 12.730469 18.367188 12.164062 16.871094 C 11.695312 17.613281 10.871094 18.105469 9.921875 18.105469 C 8.527344 18.105469 7.390625 17.035156 7.285156 15.667969 Z M 7.285156 15.667969 "/>
<path style="fill:none;stroke-width:11.338583;stroke-linecap:round;stroke-linejoin:round;stroke:rgb(12.941177%,12.941177%,12.941177%);stroke-opacity:1;stroke-miterlimit:4;" d="M 959.908384 695.130505 C 857.162285 695.130505 769.769051 759.140144 735.520351 849.840149 C 707.1766 804.962542 657.338837 775.201603 599.94274 775.201603 C 511.368516 775.201603 440.036742 846.533378 440.036742 935.107601 C 440.036742 1023.681825 511.368516 1095.013599 599.94274 1095.013599 C 657.338837 1095.013599 707.1766 1065.25266 735.520351 1020.375054 C 769.769051 1111.075058 857.162285 1175.084697 959.908384 1175.084697 C 1062.890681 1175.084697 1150.283915 1111.075058 1184.532614 1020.375054 C 1212.640168 1065.25266 1262.714129 1095.013599 1320.110226 1095.013599 C 1408.684449 1095.013599 1480.016224 1023.681825 1480.016224 935.107601 C 1480.016224 846.533378 1408.684449 775.201603 1320.110226 775.201603 C 1262.714129 775.201603 1212.640168 804.962542 1184.532614 849.840149 C 1150.283915 759.140144 1062.890681 695.130505 959.908384 695.130505 Z M 959.908384 815.119053 C 1026.5162 815.119053 1079.896932 868.735983 1079.896932 935.107601 C 1079.896932 1001.479219 1026.5162 1055.096149 959.908384 1055.096149 C 893.536766 1055.096149 839.919836 1001.479219 839.919836 935.107601 C 839.919836 868.735983 893.536766 815.119053 959.908384 815.119053 Z M 599.94274 895.190151 C 622.145345 895.190151 640.096388 912.904996 640.096388 935.107601 C 640.096388 957.310207 622.145345 975.025051 599.94274 975.025051 C 577.740135 975.025051 560.02529 957.310207 560.02529 935.107601 C 560.02529 912.904996 577.740135 895.190151 599.94274 895.190151 Z M 1320.110226 895.190151 C 1342.076633 895.190151 1360.027676 912.904996 1360.027676 935.107601 C 1360.027676 957.310207 1342.076633 975.025051 1320.110226 975.025051 C 1297.90762 975.025051 1279.956578 957.310207 1279.956578 935.107601 C 1279.956578 912.904996 1297.90762 895.190151 1320.110226 895.190151 Z M 1320.110226 895.190151 " transform="matrix(0.016538,0,0,0.016538,0,0)"/>
</g>
</svg>
